images/BTBS.svg

<svg height="250" viewBox="0 0 250 250" width="250" xmlns="http://www.w3.org/2000/svg"><path d="m164.648438 78.027344c0-.488282 0-.878906 0-1.367188 0-.488281-.097657-.976562-.097657-1.464844-.683593-9.179687-6.347656-15.527343-14.0625-19.53125-8.398437-4.296874-19.628906-5.175781-29.101562-5.273437-11.523438 0-23.730469.683594-34.765625 3.222656l-28.515625 119.140625c8.691406 2.050782 20.898437 3.027344 30.46875 3.320313h1.464843c1.367188 0 2.734376.097656 4.101563.097656 6.445313 0 12.695313-.292969 18.261719-1.074219 20.3125-2.832031 37.304687-10.449218 43.847656-28.90625-3.515625-2.34375-8.789062-3.417968-15.820312-3.417968h-6.25c-2.929688 7.128906-9.863282 11.328124-17.1875 13.183593-.488282.097657-.976563.292969-1.464844.390625-10.253906 2.050782-21.484375 1.855469-31.445313.683594l9.179688-37.792969h10.546875c1.171875-4.980469 2.929687-12.207031 4.101562-17.1875h-10.644531l7.8125-32.421875c10.15625-.976562 27.441406-2.734375 34.570313 4.6875 2.050781 2.34375 2.734374 5.46875 2.734374 8.59375.195313 7.910156-4.882812 13.378906-11.71875 16.308594l-5.273437 21.679688c2.929687.976562 5.078125 2.441406 6.835937 4.6875 7.714844 0 16.894532.390624 24.121094-2.34375-2.734375-6.445313-7.617187-10.9375-14.550781-13.769532 9.179687-3.90625 15.039063-8.496094 18.75-15.332031 2.734375-4.980469 4.199219-10.449219 4.101563-16.113281zm0 0"/><g fill="#ffa214"><path d="m125 .390625c-68.75 0-124.609375 55.859375-124.609375 124.609375s55.859375 124.609375 124.609375 124.609375 124.609375-55.859375 124.609375-124.609375-55.859375-124.609375-124.609375-124.609375zm0 232.03125c-59.277344 0-107.421875-48.242187-107.421875-107.421875 0-59.277344 48.144531-107.421875 107.421875-107.421875s107.421875 48.242187 107.421875 107.421875c0 59.277344-48.144531 107.421875-107.421875 107.421875zm0 0"/><path d="m177.539062 79.296875c-3.90625-1.953125-8.203124-3.320313-12.988281-4.003906.097657.585937.097657 1.171875.097657 1.757812v1.757813c-.097657 3.515625-.683594 6.933594-1.855469 10.15625v.097656c-.585938 1.660156-1.367188 3.320312-2.246094 4.980469 5.566406 1.660156 8.886719 5.566406 8.789063 12.304687 0 3.417969-.78125 6.347656-2.34375 8.691406-2.441407 3.808594-6.347657 6.640626-10.742188 8.203126-7.226562 2.734374-16.40625 2.34375-24.121094 2.34375h-8.007812l1.171875-4.6875c1.074219-4.492188 5.761719-23.730469 6.738281-27.832032 1.757812-.292968 4.589844-.488281 7.324219-.683594 3.613281-4.6875 4.199219-13.183593.195312-18.164062-8.59375.292969-17.871093 1.171875-25.976562 3.027344-2.636719 10.839844-7.519531 31.347656-10.058594 41.894531l-9.277344 38.574219c7.324219.195312 15.136719 0 22.558594-1.855469l3.222656-13.183594h20.214844c12.109375-.097656 21.777344 3.613281 22.167969 15.429688-.195313 25.390625-33.691406 24.316406-51.464844 22.363281 0 0 1.269531-5.46875 1.269531-5.46875-6.738281.878906-14.84375 1.171875-22.265625.976562 0 0-4.882812 20.214844-4.882812 20.214844 10.644531 2.441406 25.683594 3.320313 36.914062 3.417969 20.410156 0 36.035156-3.808594 46.875-11.328125 10.839844-7.617188 16.210938-18.261719 16.210938-32.128906.097656-10.839844-6.25-19.140625-16.308594-23.242188 8.300781-3.417968 14.160156-7.910156 17.675781-13.476562 5.957031-9.082032 7.519531-23.046875 1.269531-31.640625-2.636718-3.613281-6.054687-6.445313-10.15625-8.496094zm0 0"/></g></svg>

<!-- Generator: Adobe Illustrator 25.0.1, SVG Export Plug-In . SVG Version: 6.00 Build 0)  -->
<svg xmlns="http://www.w3.org/2000/svg" xmlns:xlink="http://www.w3.org/1999/xlink" width="250px" height="250px" viewBox="0 0 250 250" version="1.1">
<g id="surface1">
<path style=" stroke:none;fill-rule:nonzero;fill:rgb(0%,0%,0%);fill-opacity:1;" d="M 164.648438 78.027344 C 164.648438 77.539062 164.648438 77.148438 164.648438 76.660156 C 164.648438 76.171875 164.550781 75.683594 164.550781 75.195312 C 163.867188 66.015625 158.203125 59.667969 150.488281 55.664062 C 142.089844 51.367188 130.859375 50.488281 121.386719 50.390625 C 109.863281 50.390625 97.65625 51.074219 86.621094 53.613281 L 58.105469 172.753906 C 66.796875 174.804688 79.003906 175.78125 88.574219 176.074219 C 89.0625 176.074219 89.550781 176.074219 90.039062 176.074219 C 91.40625 176.074219 92.773438 176.171875 94.140625 176.171875 C 100.585938 176.171875 106.835938 175.878906 112.402344 175.097656 C 132.714844 172.265625 149.707031 164.648438 156.25 146.191406 C 152.734375 143.847656 147.460938 142.773438 140.429688 142.773438 L 134.179688 142.773438 C 131.25 149.902344 124.316406 154.101562 116.992188 155.957031 C 116.503906 156.054688 116.015625 156.25 115.527344 156.347656 C 105.273438 158.398438 94.042969 158.203125 84.082031 157.03125 L 93.261719 119.238281 L 103.808594 119.238281 C 104.980469 114.257812 106.738281 107.03125 107.910156 102.050781 L 97.265625 102.050781 L 105.078125 69.628906 C 115.234375 68.652344 132.519531 66.894531 139.648438 74.316406 C 141.699219 76.660156 142.382812 79.785156 142.382812 82.910156 C 142.578125 90.820312 137.5 96.289062 130.664062 99.21875 L 125.390625 120.898438 C 128.320312 121.875 130.46875 123.339844 132.226562 125.585938 C 139.941406 125.585938 149.121094 125.976562 156.347656 123.242188 C 153.613281 116.796875 148.730469 112.304688 141.796875 109.472656 C 150.976562 105.566406 156.835938 100.976562 160.546875 94.140625 C 163.28125 89.160156 164.746094 83.691406 164.648438 78.027344 Z M 164.648438 78.027344 "/>
<path style=" stroke:none;fill-rule:nonzero;fill:rgb(100%,63.529414%,7.843138%);fill-opacity:1;" d="M 125 0.390625 C 56.25 0.390625 0.390625 56.25 0.390625 125 C 0.390625 193.75 56.25 249.609375 125 249.609375 C 193.75 249.609375 249.609375 193.75 249.609375 125 C 249.609375 56.25 193.75 0.390625 125 0.390625 Z M 125 232.421875 C 65.722656 232.421875 17.578125 184.179688 17.578125 125 C 17.578125 65.722656 65.722656 17.578125 125 17.578125 C 184.277344 17.578125 232.421875 65.820312 232.421875 125 C 232.421875 184.277344 184.277344 232.421875 125 232.421875 Z M 125 232.421875 "/>
<path style=" stroke:none;fill-rule:nonzero;fill:rgb(100%,63.529414%,7.843138%);fill-opacity:1;" d="M 177.539062 79.296875 C 173.632812 77.34375 169.335938 75.976562 164.550781 75.292969 C 164.648438 75.878906 164.648438 76.464844 164.648438 77.050781 C 164.648438 77.636719 164.648438 78.222656 164.648438 78.808594 C 164.550781 82.324219 163.964844 85.742188 162.792969 88.964844 C 162.792969 88.964844 162.792969 88.964844 162.792969 89.0625 C 162.207031 90.722656 161.425781 92.382812 160.546875 94.042969 C 166.113281 95.703125 169.433594 99.609375 169.335938 106.347656 C 169.335938 109.765625 168.554688 112.695312 166.992188 115.039062 C 164.550781 118.847656 160.644531 121.679688 156.25 123.242188 C 149.023438 125.976562 139.84375 125.585938 132.128906 125.585938 C 132.128906 125.585938 124.121094 125.585938 124.121094 125.585938 L 125.292969 120.898438 C 126.367188 116.40625 131.054688 97.167969 132.03125 93.066406 C 133.789062 92.773438 136.621094 92.578125 139.355469 92.382812 C 142.96875 87.695312 143.554688 79.199219 139.550781 74.21875 C 130.957031 74.511719 121.679688 75.390625 113.574219 77.246094 C 110.9375 88.085938 106.054688 108.59375 103.515625 119.140625 L 94.238281 157.714844 C 101.5625 157.910156 109.375 157.714844 116.796875 155.859375 L 120.019531 142.675781 C 124.316406 142.675781 136.035156 142.675781 140.234375 142.675781 C 152.34375 142.578125 162.011719 146.289062 162.402344 158.105469 C 162.207031 183.496094 128.710938 182.421875 110.9375 180.46875 C 110.9375 180.46875 112.207031 175 112.207031 175 C 105.46875 175.878906 97.363281 176.171875 89.941406 175.976562 C 89.941406 175.976562 85.058594 196.191406 85.058594 196.191406 C 95.703125 198.632812 110.742188 199.511719 121.972656 199.609375 C 142.382812 199.609375 158.007812 195.800781 168.847656 188.28125 C 179.6875 180.664062 185.058594 170.019531 185.058594 156.152344 C 185.15625 145.3125 178.808594 137.011719 168.75 132.910156 C 177.050781 129.492188 182.910156 125 186.425781 119.433594 C 192.382812 110.351562 193.945312 96.386719 187.695312 87.792969 C 185.058594 84.179688 181.640625 81.347656 177.539062 79.296875 Z M 177.539062 79.296875 "/>
</g>
</svg>
